priv/static/svgs/icons_new/travel-airplane.svg

<svg width="32" height="32" viewBox="0 0 32 32" fill="none" xmlns="http://www.w3.org/2000/svg">
<path d="M20.5518 14.9601C21.5597 14.9608 22.5837 14.9616 23.874 14.9625C24.726 14.9562 26.9999 15.6556 26.9999 16.5C27.0159 17.3602 24.7356 18.0344 23.8836 18.0281H19.7857L19.3517 18.0376L13.773 27.2191C13.5306 27.618 12.9797 27.6865 12.647 27.3592C12.4565 27.1719 12.3848 26.8948 12.4603 26.6386L13.8654 21.8737C14.0013 21.4128 14.07 20.9348 14.0696 20.4544L14.0671 18.0376L13.7158 18.0281H10.1946C9.88908 18.0281 9.60034 18.1677 9.41066 18.4072L7.57906 20.7198C7.38739 20.9618 7.06211 21.0535 6.77226 20.9473C6.42777 20.8211 6.23462 20.4547 6.32515 20.0992L6.9261 17.7391C6.95938 17.6084 6.88349 17.4748 6.75421 17.4364C5.77242 17.1832 4.9987 16.8602 5 16.4906C5.00127 16.1304 5.73619 15.8146 6.68165 15.5644C7.0976 15.4543 6.90446 15.0971 6.79829 14.6802L6.32477 12.8205C6.23447 12.4659 6.42712 12.1004 6.77074 11.9745C7.0612 11.8681 7.38714 11.961 7.57788 12.2045L9.43021 14.5696C9.61976 14.8116 9.91008 14.953 10.2175 14.953L13.0905 14.9548L14.0895 14.9657V12.5432C14.0895 12.0644 14.0208 11.5882 13.8854 11.129L12.4796 6.36154C12.404 6.10531 12.4758 5.82829 12.6662 5.64095C12.9989 5.31366 13.5498 5.38221 13.7922 5.78107L19.3709 14.9626H20.5518" stroke="black" stroke-linejoin="round"/>
</svg>

<svg width="32" height="32" viewBox="0 0 32 32" fill="none" xmlns="http://www.w3.org/2000/svg">
  <symbol id="item" viewBox="0 0 32 32" stroke-width="1" fill="none">
    <path d="m20.552 14.96 3.322.002c.852-.006 3.126.694 3.126 1.538.016.86-2.264 1.534-3.116 1.528h-4.098l-.434.01-5.579 9.181a.724.724 0 0 1-1.313-.58l1.405-4.765c.136-.461.205-.94.205-1.42l-.003-2.416-.351-.01h-3.521a1 1 0 0 0-.784.38L7.579 20.72a.715.715 0 0 1-1.254-.62l.601-2.36a.251.251 0 0 0-.172-.304C5.772 17.183 5 16.86 5 16.491c.001-.36.736-.676 1.682-.927.416-.11.222-.467.116-.884l-.473-1.86a.714.714 0 0 1 1.253-.616L9.43 14.57a1 1 0 0 0 .787.383l2.873.002 1 .01v-2.422a5 5 0 0 0-.205-1.414L12.48 6.362a.724.724 0 0 1 1.312-.58l5.579 9.18h1.18" stroke="currentColor" stroke-linejoin="round"/>
  </symbol>
</svg>
